X:1
T:Title
%%score { ( 1 3 ) | ( 2 4 ) }
L:1/8
M:4/4
K:Bb
V:1 treble nm="Grand Piano"
V:3 treble 
V:2 bass 
V:4 bass 
V:1
 z4 z2[Q:1/4=100] [DF]2 | [DF]2 [B,D][CE] [DF]2 [DB]2 | [DF]2 [DB]2 [Fd]2 [FB]2 | c3 F c2 d2 | %4
[M:3/4] [DB]6 |[M:1/4] [DF]2 |[M:4/4] [DF]2 [B,D][CE] [DF]2 [DB]2 | [DF]2 [DB]2 [Fd]3 [Fd] | %8
 [Fc]2 z G [CFA]2 [B,=EG]2 |[M:3/4] [A,F]4 z2 |[M:1/4] (3FGA |[M:4/4] B6 z2 | d6 z2 | %13
 [Ge]3 [Ge] [Fd][Fc][FB][Fd] |[M:9/8] c2 c- c c2- cF/GA/ |[M:3/4] B6 |[M:1/4] (3Bcd | %17
[M:4/4] e6 z2 | z4 z2 c2 |[M:3/4] [B,DB]6 |] %20
V:2
 z4 z2 [B,,B,]2 | [B,,B,]2 [B,,F,]2 [B,,B,]2 [B,,B,]2 | [B,,B,]2 [B,,F,]2 [B,,B,]2 [D,B,]2 | %3
 [F,A,F]3 [F,A,] [F,A,E]2 [F,A,F]2 |[M:3/4] [B,,B,]6 |[M:1/4] [B,,B,]2 | %6
[M:4/4] [B,,B,]2 [B,,F,]2 [B,,B,]2 [B,,B,]2 | [B,,B,]2 [B,,F,]2 [B,,B,]3 [B,,B,] | z2 .A,2 z4 | %9
[M:3/4] F,4 z2 |[M:1/4] z2 |[M:4/4] z2 (3[B,,F,][B,,F,][B,,F,] [B,,F,]2 z2 | %12
 z2 (3[B,,F,][B,,F,][B,,F,] [B,,F,]2 [B,,B,]2 | [E,B,]3 [E,B,] [B,,B,][C,A,][D,B,][B,,B,] | %14
[M:9/8] [F,A,F]2 [F,A,F]- [F,A,F] [F,A,F]2- [F,A,F] z z | %15
[M:3/4] z2 (3[B,,F,][B,,F,][B,,F,] [B,,F,]2 |[M:1/4] z2 | %17
[M:4/4] z2 (3[E,B,][E,B,][E,B,] [E,B,]2 [E,B,]2 | z4 z2 E2 |[M:3/4] B,,6 |] %20
V:3
 x8 | x8 | x8 | x8 |[M:3/4] x6 |[M:1/4] x2 |[M:4/4] x8 | x8 | z2 F2 z4 |[M:3/4] x6 |[M:1/4] x2 | %11
[M:4/4] z2 (3DDD D2 (3ABc | z2 (3DDD D2 [Fd]2 | x8 |[M:9/8] x9 |[M:3/4] z2 (3DDD D2 |[M:1/4] x2 | %17
[M:4/4] z2 (3GGG G2 [Ge]2 | d2 B2 d2 (3z A,A, |[M:3/4] x6 |] %20
V:4
 x8 | x8 | x8 | x8 |[M:3/4] x6 |[M:1/4] x2 |[M:4/4] x8 | x8 | [C,A,]2 C,-[C,B,] C,2 C,2 | %9
[M:3/4] x6 |[M:1/4] x2 |[M:4/4] x8 | x8 | x8 |[M:9/8] x9 |[M:3/4] x6 |[M:1/4] x2 |[M:4/4] x8 | %18
 [F,B,F]2 [F,DF]2 [F,B,F]2 (3[F,A,]F,F, |[M:3/4] x6 |] %20

